packages/dnb-eufemia/assets/icons/history.svg

<svg width="16" height="16" viewBox="0 0 16 16" fill="none" xmlns="http://www.w3.org/2000/svg">
<path d="M9.03409 13.1818C8.61988 13.1818 8.28409 13.5176 8.28409 13.9318C8.28409 14.346 8.61988 14.6818 9.03409 14.6818V13.1818ZM3.06818 9L2.53785 9.53033C2.6785 9.67098 2.86927 9.75 3.06818 9.75C3.26709 9.75 3.45786 9.67098 3.59851 9.53033L3.06818 9ZM5.66669 7.46215C5.95959 7.16926 5.95959 6.69438 5.66669 6.40149C5.3738 6.1086 4.89893 6.1086 4.60603 6.40149L5.66669 7.46215ZM1.53033 6.40149C1.23744 6.1086 0.762563 6.1086 0.46967 6.40149C0.176777 6.69438 0.176777 7.16926 0.46967 7.46215L1.53033 6.40149ZM9.22727 5.02086C9.22727 4.60665 8.89149 4.27086 8.47727 4.27086C8.06306 4.27086 7.72727 4.60665 7.72727 5.02086H9.22727ZM8.47727 8.67995H7.72727C7.72727 9.09417 8.06306 9.42995 8.47727 9.42995V8.67995ZM11.1818 9.42995C11.596 9.42995 11.9318 9.09417 11.9318 8.67995C11.9318 8.26574 11.596 7.92995 11.1818 7.92995V9.42995ZM15.75 7.96591C15.75 4.25681 12.7432 1.25 9.03409 1.25V2.75C11.9148 2.75 14.25 5.08524 14.25 7.96591H15.75ZM9.03409 1.25C5.325 1.25 2.31818 4.25681 2.31818 7.96591H3.81818C3.81818 5.08524 6.15342 2.75 9.03409 2.75V1.25ZM9.03409 14.6818C12.7432 14.6818 15.75 11.675 15.75 7.96591H14.25C14.25 10.8466 11.9148 13.1818 9.03409 13.1818V14.6818ZM3.59851 9.53033L5.66669 7.46215L4.60603 6.40149L2.53785 8.46967L3.59851 9.53033ZM3.59851 8.46967L1.53033 6.40149L0.46967 7.46215L2.53785 9.53033L3.59851 8.46967ZM2.31818 7.96591V9H3.81818V7.96591H2.31818ZM7.72727 5.02086V8.67995H9.22727V5.02086H7.72727ZM8.47727 9.42995H11.1818V7.92995H8.47727V9.42995Z" fill="black"/>
</svg>

<svg width="16" height="16" viewBox="0 0 16 16" fill="none" xmlns="http://www.w3.org/2000/svg"><path d="M9.034 13.182a.75.75 0 0 0 0 1.5v-1.5ZM3.068 9l-.53.53a.75.75 0 0 0 1.06 0L3.069 9Zm2.599-1.538a.75.75 0 1 0-1.061-1.06l1.06 1.06ZM1.53 6.402a.75.75 0 0 0-1.06 1.06l1.06-1.06ZM9.227 5.02a.75.75 0 1 0-1.5 0h1.5Zm-.75 3.659h-.75c0 .414.336.75.75.75v-.75Zm2.705.75a.75.75 0 0 0 0-1.5v1.5Zm4.568-1.464A6.716 6.716 0 0 0 9.034 1.25v1.5a5.216 5.216 0 0 1 5.216 5.216h1.5ZM9.034 1.25a6.716 6.716 0 0 0-6.716 6.716h1.5A5.216 5.216 0 0 1 9.034 2.75v-1.5Zm0 13.432a6.716 6.716 0 0 0 6.716-6.716h-1.5a5.216 5.216 0 0 1-5.216 5.216v1.5ZM3.6 9.53l2.068-2.068-1.061-1.06L2.538 8.47l1.06 1.06Zm0-1.06L1.53 6.4.47 7.462 2.538 9.53l1.06-1.06Zm-1.28-.504V9h1.5V7.966h-1.5ZM7.726 5.02v3.66h1.5V5.02h-1.5Zm.75 4.409h2.705v-1.5H8.477v1.5Z" fill="#000"/></svg>
